X:965
T:The Barrowburn
M:4/4
L:1/8
K:D
D2 DE FAAd|B2 BA Bcdc|A2 AF ABde|fedB AFEF|
D2 DE FAAd|B2 BA Bcde|f2 af egfe|1 dBAB d2 FE:|2 dBAB d2 cd||
e3 ef ecBA|f2 fg fdBA|g2 ga gecA|a2 ag f2 ef|
g2 ga gecA|a2 ag f2 ef|g2 ag f2 ed|1 BABc d2 cd:|2 BABc d2 FE|>|
